!!!OTL: Chunfeng yichui huakaifang
!!!ARE: Asia, China,ÿNingxia Xiji
!! I, 159
!!!SCT: C1825
!!!YEM: Copyright 1995, estate of Helmut Schaffrath.
**kern
*ICvox
*Ivox
*M3/8
*k[b-e-]
*B-:
{8gg
16ff
16dd
8cc
=1
8ff
16gg
16bb-
8ccc
=2
16ccc
16ddd
8gg
8ff
=3
16gg
16bb-
8ccc
16fff
16r
=4
16ccc
16ddd
8gg
8ff
=5
16gg
16bb-
8gg
8r}
=6
{8gg
16ff
16dd
8cc
=7
8ff
16gg
16bb-
8ccc
=8
8ccc
16bb-
16gg
8ff
=9
8gg
8bb-
16gg
16bb-}
=10
{8ccc
8ccc
8fff
=11
8fff
16bb-
16gg
8ff
=12
16gg
16bb-
4gg
=13
4.ff
=14
8gg
16ccc
16bb-
8gg
=15
8bb-
4gg
=16
4.ff}
==
!!!AGN: Shange, Huar
!! Hui
!!!ONB: ESAC (Essen Associative Code) Database: SENGANSU
!!!AMT: simple triple
!!!AIN: vox
!!!EED: Helmut Schaffrath
!!!EEV: 1.0
*-
